X: 372
T: Ma yanxishan
%%abc-version 2.0
%%abcx-abcm2ps-target-version 5.9.1 (29 Sep 2008)
%%abc-creator hum2abc beta
%%abcx-conversion-date 2013/10/02 07:52:30
%%abc-edited-by Helmut Schaffrath
%%humdrum-veritas 4268870446
%%humdrum-veritas-data 3220865567
%%continueall 1
%%barnumbers 0
L: 1/16
M: 2/4
K: G
A2 A d B d B A [I:setbarnb 1]| 
d2 G2A4 | 
d2 G2 E G E D | 
E D C2D4 | 
D2> E2 D2 B,2 | 
D4G3 A | 
B2A6 | 
A B A G E2 D2 | 
C2 D2 G2 E2 | 
D E D CD4 |]  



